packages/bezier-icons/icons/hand-thumbup-filled.svg

<svg width="24" height="24" viewBox="0 0 24 24" fill="none" xmlns="http://www.w3.org/2000/svg">
<path d="M16.7772 2.56438C16.4066 2.19385 15.9663 2.04999 15.537 2.04999C15.1092 2.04999 14.6668 2.19538 14.3001 2.5621L8.8302 8.03102L8.62772 8.24304C7.57725 9.39506 7 10.8816 7 12.451V13.227L7.00512 13.4828C7.10392 15.9454 8.62428 18.1083 10.9286 19.0305C11.7753 19.3682 12.6656 19.54 13.573 19.54H16.25L16.4418 19.5343C17.7139 19.4586 18.8406 18.6352 19.2922 17.4324L21.5422 11.4315L21.611 11.2289C21.9002 10.2782 21.7429 9.26362 21.1702 8.4377L21.0433 8.26606C20.4284 7.48839 19.504 7.03999 18.5 7.03999L14.7708 7.03924L16.7749 5.03687L16.8881 4.91182C17.4539 4.22343 17.4163 3.20685 16.7772 2.56438Z" fill="#313234"/>
<path d="M3.0543 9.273C2.9998 9.37996 2.9998 9.51997 2.9998 9.8V18.2C2.9998 18.48 2.9998 18.62 3.0543 18.727C3.10224 18.8211 3.17873 18.8976 3.27281 18.9455C3.37976 19 3.51978 19 3.7998 19H5.1998C5.47983 19 5.61984 19 5.7268 18.9455C5.82088 18.8976 5.89737 18.8211 5.9453 18.727C5.9998 18.62 5.9998 18.48 5.9998 18.2V9.8C5.9998 9.51997 5.9998 9.37996 5.9453 9.273C5.89737 9.17892 5.82088 9.10243 5.7268 9.0545C5.61984 9 5.47983 9 5.1998 9H3.7998C3.51978 9 3.37976 9 3.27281 9.0545C3.17873 9.10243 3.10224 9.17892 3.0543 9.273Z" fill="#313234"/>
</svg>

<svg xmlns="http://www.w3.org/2000/svg" width="24" height="24" fill="none" viewBox="0 0 24 24"><path fill="#313234" d="M16.777 2.564c-.37-.37-.81-.514-1.24-.514-.428 0-.87.145-1.237.512L8.83 8.031l-.202.212A6.22 6.22 0 0 0 7 12.451v.776l.005.256a6.23 6.23 0 0 0 3.924 5.547 7.1 7.1 0 0 0 2.644.51h2.677l.192-.006a3.26 3.26 0 0 0 2.85-2.102l2.25-6 .069-.203a3.22 3.22 0 0 0-.44-2.791l-.128-.172A3.22 3.22 0 0 0 18.5 7.04h-3.73l2.005-2.003.113-.125a1.753 1.753 0 0 0-.11-2.348M3.054 9.273C3 9.38 3 9.52 3 9.8v8.4c0 .28 0 .42.054.527a.5.5 0 0 0 .219.218C3.38 19 3.52 19 3.8 19h1.4c.28 0 .42 0 .527-.055a.5.5 0 0 0 .218-.218C6 18.62 6 18.48 6 18.2V9.8c0-.28 0-.42-.055-.527a.5.5 0 0 0-.218-.218C5.62 9 5.48 9 5.2 9H3.8c-.28 0-.42 0-.527.055a.5.5 0 0 0-.219.218"/></svg>
